flaticon/productivity-and-development/target.svg

<svg xmlns="http://www.w3.org/2000/svg" width="32" height="32" viewBox="0 0 24 24">
    <path d="M 12 24 C 5.382812 24 0 18.617188 0 12 C 0 5.382812 5.382812 0 12 0 C 18.617188 0 24 5.382812 24 12 C 24 18.617188 18.617188 24 12 24 Z M 12 1.019531 C 5.945312 1.019531 1.019531 5.945312 1.019531 12 C 1.019531 18.054688 5.945312 22.980469 12 22.980469 C 18.054688 22.980469 22.980469 18.054688 22.980469 12 C 22.980469 5.945312 18.054688 1.019531 12 1.019531 Z M 12 1.019531"/>
    <path d="M 12 20.632812 C 7.238281 20.632812 3.367188 16.761719 3.367188 12 C 3.367188 7.238281 7.238281 3.367188 12 3.367188 C 16.761719 3.367188 20.632812 7.238281 20.632812 12 C 20.632812 16.761719 16.761719 20.632812 12 20.632812 Z M 12 4.386719 C 7.800781 4.386719 4.386719 7.804688 4.386719 12 C 4.386719 16.195312 7.800781 19.613281 12 19.613281 C 16.199219 19.613281 19.613281 16.195312 19.613281 12 C 19.613281 7.804688 16.199219 4.386719 12 4.386719 Z M 12 4.386719"/>
    <path d="M 12 16.714844 C 9.402344 16.714844 7.285156 14.597656 7.285156 12 C 7.285156 9.402344 9.402344 7.285156 12 7.285156 C 14.597656 7.285156 16.714844 9.402344 16.714844 12 C 16.714844 14.597656 14.597656 16.714844 12 16.714844 Z M 12 8.308594 C 9.964844 8.308594 8.308594 9.964844 8.308594 12 C 8.308594 14.035156 9.964844 15.691406 12 15.691406 C 14.035156 15.691406 15.691406 14.035156 15.691406 12 C 15.691406 9.964844 14.035156 8.308594 12 8.308594 Z M 12 8.308594"/>
</svg>

<svg xmlns="http://www.w3.org/2000/svg" width="32" height="32" viewBox="0 0 24 24">
    <path d="M12 24C5.383 24 0 18.617 0 12S5.383 0 12 0s12 5.383 12 12-5.383 12-12 12zm0-22.98C5.945 1.02 1.02 5.945 1.02 12c0 6.055 4.925 10.98 10.98 10.98 6.055 0 10.98-4.925 10.98-10.98 0-6.055-4.925-10.98-10.98-10.98zm0 0"/>
    <path d="M12 20.633c-4.762 0-8.633-3.871-8.633-8.633 0-4.762 3.871-8.633 8.633-8.633 4.762 0 8.633 3.871 8.633 8.633 0 4.762-3.871 8.633-8.633 8.633zm0-16.246c-4.2 0-7.613 3.418-7.613 7.613S7.8 19.613 12 19.613c4.2 0 7.613-3.418 7.613-7.613S16.2 4.387 12 4.387zm0 0"/>
    <path d="M12 16.715A4.723 4.723 0 0 1 7.285 12 4.723 4.723 0 0 1 12 7.285 4.723 4.723 0 0 1 16.715 12 4.723 4.723 0 0 1 12 16.715zm0-8.406A3.696 3.696 0 0 0 8.309 12 3.696 3.696 0 0 0 12 15.691 3.696 3.696 0 0 0 15.691 12 3.696 3.696 0 0 0 12 8.309zm0 0"/>
</svg>
